X:1
T:Title
%%score 1 { ( 2 5 ) | ( 3 4 ) }
L:1/8
Q:1/4=100
M:4/4
K:Eb
V:1 treble nm="Choir Aahs"
V:2 treble nm="Grand Piano"
V:5 treble 
V:3 bass 
V:4 bass 
V:1
 BcBG F2 B,2 | E2 E2 E4 | BcBG F2 B,2 | E2 E2 E4 | GG=A=B c2 e2 | e2 d2 c4 | BcBe G2 F2 | %7
w: Robert~Harkness * * * * *|||||||
[M:11/8] E-E-E-E-E-E- E3 z2 |[M:4/4] z8 | z8 | z8 | z8 | z8 | z8 | z8 |[M:11/8] z11 |] %16
w: |||||||||
V:2
 z2 [EG]2 [B,DA]2 [DAB]2 | [B,EG]2 [CEA]2 [B,EG]4 | z2 [EG]2 [B,DA]2 [DAB]2 | %3
 [B,EG]2 [CEA]2 [B,EG]4 | z2 [=B,DG]2 [CEG]2 [CEG]2 | [CEG]2 [G,DF]2 [G,CE]4 | %6
 z2 [B,EG]2 [DG]2 [A,DF]2 |[M:11/8] [G,E]-[G,E]-[G,E]-[G,E]-[G,E]-[G,E]- [G,E]3 z2 | %8
[M:4/4] z4 z2 .c2 | [Ge]2 e2 e4 | eed=B G2 AB | c6 z2 | [Ec][Ec][Ee][Ec] BG B2 | %13
 [DB][DF][EG][FA] Gc B2 | [Ge][Ac][GB][Ge] [EG]2 [DF]2 |[M:11/8] E-E-E-E-E-E- E3 z2 |] %16
V:3
 z2 B,2 F,2 B,,2 | E,2 A,,2 E,2 E,,2 | z2 B,2 F,2 B,,2 | E,2 A,,2 E,2 E,,2 | G,2 F,2 E,2 C,2 | %5
 G,,2 =B,,2 C,4 | B,,C,E,G, B,2 B,,2 |[M:11/8] E,-E,-E,-E,-E,-E,- E,3 z2 | %8
[M:4/4] B,CB,G, F,2 [B,,B,]2 | B,2[K:treble] [CA]2 [B,G]4 | %10
 [G,=B,E]2 [G,B,F]2 [G,B,F]2 [G,F]-[G,DF] | C,2 C,2 C,4 | %12
 [A,,A,][A,,A,][C,A,][A,,A,] [E,G,E][E,B,E] [E,G,E]2 | %13
 [B,,F,][B,,B,][B,,B,][B,,B,] [E,B,E][E,A,E] [E,G,E]2 | [E,B,][E,E][E,E][E,B,] [B,,B,]2 [B,,A,]2 | %15
[M:11/8] [E,G,]-[E,G,]-[E,G,]-[E,G,]-[E,G,]-[E,G,]- [E,G,]3 z2 |] %16
V:4
 E,4 z4 | x8 | E,4 z4 | x8 | x8 | x8 | x8 |[M:11/8] x11 |[M:4/4] x8 | E,8[K:treble] | z4 z2 .C2 | %11
 x8 | x8 | x8 | x8 |[M:11/8] x11 |] %16
V:5
 x8 | x8 | x8 | x8 | x8 | x8 | x8 |[M:11/8] x11 |[M:4/4] [EGB]2 [EGB]2 [DAB]2 A-[Ad] | x8 | x8 | %11
 [CE]2 [A,F]2 [G,E]4 | x8 | x8 | x8 |[M:11/8] x11 |] %16

